build/category/PostOutline.svg

<svg xmlns="http://www.w3.org/2000/svg" fill="none" viewBox="0 0 24 24" focusable="false"><path d="M0 0H24V24H0z"/><path fill="#74767B" fill-rule="evenodd" d="M3.0958 6.61264L14.1459 6.61262C14.5049 6.61262 14.7959 6.90363 14.7959 7.26262L14.7959 7.94661C14.7959 7.97273 14.7975 7.99865 14.8006 8.02426L14.8007 10.9115C14.8007 11.9884 15.6737 12.8615 16.7507 12.8615L19.1599 12.8615C19.1729 12.9618 19.1795 13.0631 19.1795 13.1648L19.1795 14.7297C19.1795 14.7574 19.1572 14.7797 19.1295 14.7797L4.82848 14.7797C4.80086 14.7797 4.77848 14.7573 4.77848 14.7297L4.77848 11.1695C4.77848 10.8106 4.48746 10.5195 4.12848 10.5195C3.76949 10.5195 3.47848 10.8106 3.47848 11.1695L3.47848 14.7297C3.47848 15.4753 4.08289 16.0797 4.82848 16.0797L19.1295 16.0797C19.8751 16.0797 20.4795 15.4753 20.4795 14.7297L20.4795 13.1648C20.4795 12.7008 20.3911 12.2411 20.2189 11.8102L19.1765 9.20182C18.6649 7.92182 17.4135 7.14232 16.0944 7.18496C16.0537 6.144 15.1969 5.31262 14.1459 5.31262L3.0958 5.31264C2.73681 5.31264 2.4458 5.60366 2.4458 5.96264C2.4458 6.32163 2.73682 6.61264 3.0958 6.61264ZM16.1007 10.9115L16.1006 8.48601C16.8982 8.44532 17.6604 8.91143 17.9693 9.68426L18.7195 11.5615L16.7507 11.5615C16.3917 11.5615 16.1007 11.2705 16.1007 10.9115ZM4.14194 7.93762C3.78296 7.93762 3.49194 8.22863 3.49194 8.58762C3.49194 8.9466 3.78296 9.23762 4.14194 9.23762L7.34495 9.23762C7.70394 9.23762 7.99495 8.9466 7.99495 8.58762C7.99495 8.22863 7.70394 7.93762 7.34495 7.93762L4.14194 7.93762ZM9.27307 18.2437C9.27307 19.0721 8.6015 19.7437 7.77307 19.7437C6.94464 19.7437 6.27307 19.0721 6.27307 18.2437C6.27307 17.4153 6.94464 16.7437 7.77307 16.7437C8.6015 16.7437 9.27307 17.4153 9.27307 18.2437ZM17.625 18.2437C17.625 19.0721 16.9534 19.7437 16.125 19.7437C15.2966 19.7437 14.625 19.0721 14.625 18.2437C14.625 17.4153 15.2966 16.7437 16.125 16.7437C16.9534 16.7437 17.625 17.4153 17.625 18.2437Z"/></svg>

<svg xmlns="http://www.w3.org/2000/svg" fill="none" viewBox="0 0 24 24" focusable="false"><path fill="#74767B" fill-rule="evenodd" d="M3.09 6.61h11.05c.36 0 .65.29.65.65v.68c0 .03 0 .05.01.08v2.89c0 1.07.87 1.95 1.95 1.95h2.4c.02.1.02.2.02.3v1.56c0 .03-.02.05-.05.05H4.82c-.02 0-.05-.02-.05-.05v-3.56c0-.35-.29-.65-.65-.65s-.65.3-.65.65v3.56c0 .75.61 1.35 1.35 1.35h14.3c.75 0 1.35-.6 1.35-1.35v-1.56c0-.46-.08-.92-.26-1.35L19.17 9.2a3.21 3.21 0 0 0-3.08-2.02 1.95 1.95 0 0 0-1.95-1.87H3.09c-.36 0-.65.29-.65.65s.29.65.65.65m13.01 4.3V8.48c.79-.04 1.56.43 1.86 1.2l.75 1.88h-1.96c-.36 0-.65-.29-.65-.65M4.14 7.93c-.36 0-.65.29-.65.65s.29.65.65.65h3.2c.36 0 .65-.29.65-.65s-.29-.65-.65-.65zm5.13 10.31c0 .83-.67 1.5-1.5 1.5s-1.5-.67-1.5-1.5.67-1.5 1.5-1.5 1.5.67 1.5 1.5m8.35 0c0 .83-.67 1.5-1.5 1.5s-1.5-.67-1.5-1.5.67-1.5 1.5-1.5 1.5.67 1.5 1.5"/></svg>
